Flat-Remix-Dark/apps/scalable/copy.svg

<svg xmlns="http://www.w3.org/2000/svg" width="384pt" height="384pt" version="1.1" viewBox="0 0 384 384"> <defs> <linearGradient id="linear0" x1="3.64" x2="11" y1="19.129" y2="17.928" gradientTransform="matrix(7.833333,0,0,7.833333,7.91667,27.49998)" gradientUnits="userSpaceOnUse"> <stop offset="0" style="stop-color:rgb(0%,0%,0%);stop-opacity:0.101961"/> <stop offset="1" style="stop-color:rgb(26.274%,61.568%,81.176%);stop-opacity:0.996078"/> </linearGradient> <linearGradient id="linear1" x1="7.901" x2="22.097" y1="41.427" y2="35.811" gradientTransform="matrix(7.833333,0,0,7.833333,7.91667,27.49998)" gradientUnits="userSpaceOnUse"> <stop offset="0" style="stop-color:rgb(0%,0%,0%)"/> <stop offset="1" style="stop-color:rgb(26.274%,61.568%,81.176%);stop-opacity:0.996078"/> </linearGradient> <linearGradient id="linear2" x1="17.735" x2="23.876" y1="43.796" y2="24" gradientTransform="matrix(7.833333,0,0,7.833333,7.91667,27.49998)" gradientUnits="userSpaceOnUse"> <stop offset="0" style="stop-color:rgb(0%,0%,0%);stop-opacity:0"/> <stop offset="1" style="stop-color:rgb(99.215%,49.019%,0%)"/> </linearGradient> <linearGradient id="linear3" x1="33.422" x2="32" y1="51.707" y2="28" gradientTransform="matrix(7.833333,0,0,7.833333,7.91667,27.49998)" gradientUnits="userSpaceOnUse"> <stop offset="0" style="stop-color:rgb(9.803%,9.803%,9.803%);stop-opacity:0.101961"/> <stop offset="1" style="stop-color:rgb(26.274%,61.568%,81.176%);stop-opacity:0.996078"/> </linearGradient> </defs> <g> <path style="fill-rule:evenodd;fill:rgb(26.274%,61.568%,81.176%);fill-opacity:0.996078" d="M 352.582031 35.332031 L 274.25 192 L 313.417969 199.832031 Z M 86.25 145 L 15.75 207.667969 L 94.082031 176.332031 L 148.917969 348.667969 L 188.082031 325.167969 L 368.25 340.832031 L 305.582031 223.332031 L 274.25 215.5 L 172.417969 286 L 117.582031 152.832031 Z M 86.25 145"/> <path style="fill-rule:evenodd;fill:rgb(99.215%,49.019%,0%)" d="M 156.75 223.332031 L 180.25 262.5 L 266.417969 215.5 L 203.75 199.832031 Z M 156.75 223.332031"/> <path style="fill-rule:evenodd;fill:url(#linear0)" d="M 86.25 145 L 75.128906 183.90625 L 94.082031 176.332031 Z M 86.25 145"/> <path style="fill-rule:evenodd;fill:url(#linear1)" d="M 171.253906 283.183594 L 157.316406 343.632812 L 188.082031 325.167969 L 189.230469 325.273438 L 174.664062 284.453125 L 172.417969 286 Z M 171.253906 283.183594"/> <path style="fill-rule:evenodd;fill:url(#linear2)" d="M 203.75 199.832031 L 156.75 223.332031 L 180.25 262.5 L 183.449219 260.753906 Z M 203.75 199.832031"/> <path style="fill-rule:evenodd;fill:url(#linear3)" d="M 274.25 215.5 L 237.5625 240.898438 L 367.914062 340.207031 L 305.582031 223.332031 Z M 274.25 215.5"/> </g> </svg>

<svg width="512" height="512" version="1.1" viewBox="0 0 384 384" xmlns="http://www.w3.org/2000/svg"><defs><linearGradient id="d" x1="3.64" x2="11" y1="19.129" y2="17.928" gradientTransform="matrix(7.8333 0 0 7.8333 7.9167 27.5)" gradientUnits="userSpaceOnUse"><stop stop-opacity=".10196" offset="0"/><stop stop-color="#429cce" stop-opacity=".99608" offset="1"/></linearGradient><linearGradient id="c" x1="7.901" x2="22.097" y1="41.427" y2="35.811" gradientTransform="matrix(7.8333 0 0 7.8333 7.9167 27.5)" gradientUnits="userSpaceOnUse"><stop offset="0"/><stop stop-color="#429cce" stop-opacity=".99608" offset="1"/></linearGradient><linearGradient id="b" x1="17.735" x2="23.876" y1="43.796" y2="24" gradientTransform="matrix(7.8333 0 0 7.8333 7.9167 27.5)" gradientUnits="userSpaceOnUse"><stop stop-opacity="0" offset="0"/><stop stop-color="#fc7c00" offset="1"/></linearGradient><linearGradient id="a" x1="33.422" x2="32" y1="51.707" y2="28" gradientTransform="matrix(7.8333 0 0 7.8333 7.9167 27.5)" gradientUnits="userSpaceOnUse"><stop stop-color="#181818" stop-opacity=".10196" offset="0"/><stop stop-color="#429cce" stop-opacity=".99608" offset="1"/></linearGradient></defs><path d="m352.58 42.832-78.333 156.67 39.168 7.8325zm-266.33 109.67-70.5 62.667 78.333-31.336 54.835 172.34 8.4009-5.0405-1e-3 6e-3 30.765-18.464 1.1484 0.10546-1e-3 -6e-3 179.02 15.564-62.667-117.5-31.333-7.8325-101.83 70.5-54.836-133.17zm117.5 54.832-47 23.5 23.5 39.167 3.1992-1.7461 82.969-45.253z" fill-opacity=".99608" fill-rule="evenodd" opacity=".3"/><g fill-rule="evenodd"><path d="m352.58 35.332-78.332 156.67 39.168 7.832zm-266.33 109.67-70.5 62.668 78.332-31.336 54.836 172.34 39.164-23.5 180.17 15.664-62.668-117.5-31.332-7.832-101.83 70.5-54.836-133.17z" fill="#429cce" fill-opacity=".99608"/><path d="m156.75 223.33 23.5 39.168 86.168-47-62.668-15.668z" fill="#fc7c00"/><path d="m86.25 145-11.121 38.906 18.953-7.5742z" fill="url(#d)"/><path d="m171.25 283.18-13.938 60.449 30.766-18.465 1.1484 0.10547-14.566-40.82-2.2461 1.5469z" fill="url(#c)"/><path d="m203.75 199.83-47 23.5 23.5 39.168 3.1992-1.7461z" fill="url(#b)"/><path d="m274.25 215.5-36.688 25.398 130.35 99.309-62.332-116.88z" fill="url(#a)"/></g></svg>
